outputs/icons/social/money_usd_round.svg

<svg xmlns="http://www.w3.org/2000/svg" width="1200" height="1200" fill="none"><path fill="#000" d="M590.015 545c-113.5-29.5-150-60-150-107.5 0-54.5 50.5-92.5 135-92.5 64.62 0 99.72 22.404 115.245 58.601C700.78 428.122 720.99 450 747.675 450h10.765c28.41 0 51.735-24.008 43.81-51.293-18.78-64.673-69.02-118.902-152.235-139.207V200c0-27.614-22.385-50-50-50h-50c-27.615 0-50 22.386-50 50v58c-97 21-175 84-175 180.5 0 115.5 95.501 173 235 206.5 125 30 150 74 150 120.5 0 34.5-24.5 89.5-135 89.5-75.687 0-117.626-24.84-136.728-61.425C426.337 770.695 406.276 750 380.46 750h-11.629c-28.69 0-52.237 24.545-43.429 51.85 24.977 77.425 94.978 122.645 174.613 139.65v58.5c0 27.615 22.385 50 50 50h50c27.615 0 50-22.385 50-50v-57.5c97.5-18.5 175-75 175-177.5 0-142-121.5-190.5-235-220"/></svg>

<svg width="1200" height="1200" viewBox="0 0 1200 1200" fill="none" xmlns="http://www.w3.org/2000/svg"><path d="M590.005 545C476.504 515.5 440.003 485 440.003 437.5C440.003 383 490.503 345 575.005 345C639.62 345 674.72 367.404 690.25 403.601C700.77 428.122 720.98 450 747.66 450H758.425C786.84 450 810.165 425.992 802.24 398.707C783.455 334.034 733.215 279.805 650.005 259.5V200C650.005 172.386 627.62 150 600.005 150H550.005C522.39 150 500.005 172.386 500.005 200V258C403.003 279 325.003 342 325.003 438.5C325.003 554 420.503 611.5 560.005 645C685.005 675 710.005 719 710.005 765.5C710.005 800 685.505 855 575.005 855C499.316 855 457.377 830.16 438.274 793.575C426.325 770.695 406.264 750 380.447 750H368.818C340.129 750 316.582 774.545 325.39 801.85C350.366 879.275 420.368 924.495 500.005 941.5V1000C500.005 1027.615 522.39 1050 550.005 1050H600.005C627.62 1050 650.005 1027.615 650.005 1000V942.5C747.505 924 825.005 867.5 825.005 765C825.005 623 703.505 574.5 590.005 545Z" fill="#1D1E23"/></svg>
